X: 39465
T: Tarbolton, The
R: reel
M: 4/4
K: Edorian
D|:Eeed e2 BA|GBAF GFE2|Dddc d2AF|GBAG FDDF|
Eeed e2ge|fedf e2BA|GABG FGA=c|1 (3BAG (3AGF GEED:|2 (3BAG (3AGF GEE2||
|:gfef (3gfe be|(3gfe be gfef|d2 (3fed adfd|ABAG FDDF|
G2 (3BAG F2 (3AGF|E2ef gfed|B2dB AGFA|1 (3BAG (3AGF GEE2:|2 (3BAG (3AGF GEED||

